X:1
T:Calming Coast
M:4/4
L:1/8
K:Dm
D2D2 F3A|B2A2 A6|F3D F2E2|D4 D8|
B3d cBAF|A2F2 D6|A d3 e2^c2|d4 d8||